; Start Gcode for Metal
G21 ; set units to millimeters
G90 ; use absolute coordinates
M5 ; laser OFF
M8 ; Funtai ON
M3 ; laser ON
G0 F600 X0 Y0 Z0 S0 ; Move to Origin
;G4 P2000 ; wait 2sec
; Start Gcode for Metal end

;FLAVOR:Marlin
;TIME:6666
;Filament used: 0m
;Layer height: 0.2

;Generated with Cura_SteamEngine 2.7.0-BETA
G21; set units to millimeters 
; Ignore Command Line G90; use absolute coordinates 
M5 ; laser OFF 
M8 ; Funtai ON 
M3 ; laser ON 
G0 F600 X0 Y0 Z0 S0; Move To Origin S0 ; travel moving
G4 P2000; Wait 2sec 

;LAYER_COUNT:199
;LAYER:0
; Ignore Command Line M107
G0 F240 X-34.67 Y-22.599 Z0.2 S0 ; travel moving
;TYPE:WALL-OUTER
G4 P33.0
M3 ; laser on
G1 X-34.895 Y-22.075 S50
G1 X-35.577 Y-22.109 S50
G1 X-36.79 Y-22.674 S50
G1 X-37.344 Y-23.638 S50
G1 X-37.429 Y-24.51 S50
G1 X-37.43 Y-41.984 S50
G1 X-36.966 Y-42.888 S50
G1 X-36.421 Y-43.439 S50
G1 X-35.684 Y-43.23 S50
G1 X-35.101 Y-43.183 S50
G1 X-34.834 Y-43.209 S50
G1 X-34.046 Y-42.083 S50
G1 X-33.979 Y-41.975 S50
G1 X-33.98 Y-24.534 S50
G1 X-34.67 Y-22.599 S50
M5 ; laser off
G0 X-34.748 Y-22.416 S0 ; travel moving
G0 X-34.839 Y-22.456 S0 ; travel moving
G0 X-36.648 Y-22.828 S0 ; travel moving
G0 X-36.457 Y-22.959 S0 ; travel moving
; Ignore Command Line G1 F240 E-5.91737
G0 F240 X-33.999 Y-24.537 S0 ; travel moving
G0 X-33.114 Y-24.537 S0 ; travel moving
G0 X33.114 Y-24.537 S0 ; travel moving
G0 X33.998 Y-24.537 S0 ; travel moving
G0 X34.077 Y-24.551 S0 ; travel moving
G0 X33.979 Y-24.534 S0 ; travel moving
; Ignore Command Line G1 F240 E0.58263
G4 P33.0
M3 ; laser on
G1 X33.98 Y-41.976 S50
G1 X34.047 Y-42.084 S50
G1 X34.863 Y-43.251 S50
G1 X35.145 Y-43.345 S50
G1 X35.919 Y-43.266 S50
G1 X36.746 Y-43.077 S50
G1 X37.34 Y-42.486 S50
G1 X37.429 Y-42.016 S50
G1 X37.429 Y-24.51 S50
G1 X37.326 Y-23.443 S50
G1 X37.15 Y-22.625 S50
G1 X37.021 Y-22.509 S50
G1 X36.849 Y-22.431 S50
G1 X35.536 Y-22.135 S50
G1 X35.521 Y-22.194 S50
G1 X35.083 Y-22.351 S50
G1 X34.652 Y-22.649 S50
G1 X33.979 Y-24.534 S50
M5 ; laser off
G0 X33.979 Y-24.734 S0 ; travel moving
G0 X34.079 Y-24.734 S0 ; travel moving
G0 X34.818 Y-22.778 S0 ; travel moving
G0 X35.028 Y-22.875 S0 ; travel moving
; Ignore Command Line G1 F240 E-5.3354
G0 F240 X33.998 Y-24.537 S0 ; travel moving
G0 X33.114 Y-24.537 S0 ; travel moving
G0 X-32.865 Y-22.404 S0 ; travel moving
;TIME_ELAPSED:71.586416
;LAYER:1
; Ignore Command Line M106 S255
G0 X-32.865 Y-22.404 Z0.4 S0 ; travel moving
;TYPE:WALL-OUTER
; Ignore Command Line G1 F240 E1.1646
G4 P33.0
M3 ; laser on
G1 X-33.184 Y-22.027 S50
G1 X-34.144 Y-21.008 S50
G1 X-34.598 Y-20.832 S50
G1 X-35.376 Y-20.563 S50
G1 X-36.16 Y-20.604 S50
G1 X-37.259 Y-21.111 S50
G1 X-38.133 Y-21.878 S50
G1 X-38.631 Y-22.592 S50
G1 X-38.824 Y-24.161 S50
G1 X-38.84 Y-24.501 S50
G1 X-38.84 Y-42.007 S50
G1 X-38.788 Y-42.211 S50
G1 X-38.032 Y-43.723 S50
G1 X-37.124 Y-43.889 S50
G1 X-36.372 Y-43.677 S50
G1 X-34.353 Y-43.511 S50
G1 X-33.123 Y-43.635 S50
G1 X-33.083 Y-43.578 S50
G1 X-32.982 Y-43.293 S50
G1 X-32.645 Y-42.008 S50
G1 X-32.645 Y-24.511 S50
G1 X-32.712 Y-23.156 S50
G1 X-32.769 Y-22.579 S50
G1 X-32.865 Y-22.404 S50
M5 ; laser off
G0 X-32.994 Y-22.252 S0 ; travel moving
G0 X-33.069 Y-22.316 S0 ; travel moving
G0 X-34.26 Y-21.177 S0 ; travel moving
G0 X-34.345 Y-21.377 S0 ; travel moving
; Ignore Command Line G1 F240 E-4.64743
G0 F240 X-33.198 Y-22.04 S0 ; travel moving
G0 X-32.524 Y-21.469 S0 ; travel moving
G0 X31.781 Y-24.467 S0 ; travel moving
G0 X32.663 Y-24.511 S0 ; travel moving
G0 X32.743 Y-24.513 S0 ; travel moving
G0 X32.644 Y-24.511 S0 ; travel moving
; Ignore Command Line G1 F240 E1.85257
G4 P33.0
M3 ; laser on
G1 X32.644 Y-42.008 S50
G1 X32.983 Y-43.301 S50
G1 X33.081 Y-43.575 S50
G1 X33.152 Y-43.677 S50
G1 X33.664 Y-43.845 S50
G1 X34.386 Y-43.996 S50
G1 X34.661 Y-44.02 S50
G1 X35.541 Y-43.994 S50
G1 X37.411 Y-43.806 S50
G1 X37.907 Y-43.692 S50
G1 X38.474 Y-43.37 S50
G1 X38.784 Y-42.233 S50
G1 X38.84 Y-42.008 S50
G1 X38.841 Y-24.511 S50
G1 X38.823 Y-24.166 S50
G1 X38.491 Y-22.625 S50
G1 X37.005 Y-21.303 S50
G1 X35.597 Y-20.661 S50
G1 X35.532 Y-20.631 S50
G1 X35.436 Y-21.012 S50
G1 X34.098 Y-21.496 S50
G1 X32.942 Y-22.293 S50
G1 X32.769 Y-22.584 S50
G1 X32.713 Y-23.155 S50
G1 X32.644 Y-24.511 S50
M5 ; laser off
G0 X32.644 Y-24.711 S0 ; travel moving
G0 X32.744 Y-24.711 S0 ; travel moving
G0 X38.309 Y-22.73 S0 ; travel moving
G0 X38.139 Y-22.888 S0 ; travel moving
; Ignore Command Line G1 F240 E-3.96344
G0 F240 X32.663 Y-24.511 S0 ; travel moving
G0 X31.781 Y-24.467 S0 ; travel moving
G0 X-32.104 Y-21.993 S0 ; travel moving
G0 X-32.881 Y-22.415 S0 ; travel moving
G0 X-33.258 Y-22.093 S0 ; travel moving
G0 X-32.516 Y-21.415 S0 ; travel moving
;TIME_ELAPSED:139.749323
;LAYER:2
G0 X-32.516 Y-21.415 Z0.6 S0 ; travel moving
;TYPE:WALL-OUTER
; Ignore Command Line G1 F240 E2.53656
G4 P33.0
M3 ; laser on
G1 X-33.35 Y-20.426 S50
G1 X-33.771 Y-20.024 S50
G1 X-33.829 Y-19.987 S50
G1 X-34.612 Y-19.679 S50
G1 X-35.344 Y-19.425 S50
G1 X-35.416 Y-19.41 S50
G1 X-36.113 Y-19.437 S50
G1 X-37.08 Y-19.712 S50
G1 X-38.12 Y-20.445 S50
G1 X-38.529 Y-20.802 S50
G1 X-39.2 Y-21.766 S50
G1 X-39.532 Y-22.271 S50
G1 X-39.654 Y-22.507 S50
G1 X-39.706 Y-22.98 S50
G1 X-39.767 Y-24.501 S50
G1 X-39.767 Y-42.012 S50
G1 X-39.514 Y-43.264 S50
G1 X-39.421 Y-43.629 S50
G1 X-39.374 Y-43.723 S50
G1 X-37.108 Y-44.137 S50
G1 X-37.057 Y-44.123 S50
G1 X-33.604 Y-43.841 S50
G1 X-32.836 Y-43.918 S50
G1 X-32.355 Y-43.819 S50
G1 X-32.196 Y-43.612 S50
G1 X-31.784 Y-42.237 S50
G1 X-31.735 Y-42.009 S50
G1 X-31.735 Y-24.509 S50
G1 X-31.768 Y-23.67 S50
G1 X-31.872 Y-22.581 S50
G1 X-32.516 Y-21.415 S50
M5 ; laser off
G0 X-32.645 Y-21.263 S0 ; travel moving
G0 X-32.72 Y-21.327 S0 ; travel moving
G0 X-38.381 Y-20.939 S0 ; travel moving
G0 X-38.213 Y-21.056 S0 ; travel moving
; Ignore Command Line G1 F240 E-3.20796
G0 F240 X-31.891 Y-22.586 S0 ; travel moving
G0 X-31.011 Y-22.502 S0 ; travel moving
G0 X30.871 Y-24.469 S0 ; travel moving
G0 X31.754 Y-24.501 S0 ; travel moving
G0 X31.866 Y-23.675 S0 ; travel moving
G0 X31.767 Y-23.669 S0 ; travel moving
; Ignore Command Line G1 F240 E3.29204
G4 P33.0
M3 ; laser on
G1 X31.735 Y-24.501 S50
G1 X31.734 Y-42.032 S50
G1 X31.772 Y-42.509 S50
G1 X32.021 Y-43.446 S50
G1 X32.347 Y-43.818 S50
G1 X33.201 Y-43.996 S50
G1 X35.313 Y-44.172 S50
G1 X35.607 Y-44.169 S50
G1 X38.372 Y-44.027 S50
G1 X39.309 Y-43.769 S50
G1 X39.395 Y-43.72 S50
G1 X39.513 Y-43.264 S50
G1 X39.766 Y-42.012 S50
G1 X39.767 Y-24.509 S50
G1 X39.706 Y-22.967 S50
G1 X39.675 Y-22.569 S50
G1 X39.598 Y-22.396 S50
G1 X39.508 Y-22.34 S50
G1 X36.987 Y-20.097 S50
G1 X35.705 Y-19.511 S50
G1 X35.529 Y-19.431 S50
G1 X35.479 Y-19.416 S50
G1 X35.455 Y-19.418 S50
G1 X35.408 Y-19.606 S50
G1 X35.35 Y-19.83 S50
G1 X33.116 Y-20.64 S50
G1 X32.976 Y-20.736 S50
G1 X31.872 Y-22.585 S50
G1 X31.767 Y-23.669 S50
M5 ; laser off
G0 X31.76 Y-23.869 S0 ; travel moving
G0 X31.86 Y-23.872 S0 ; travel moving
G0 X33.126 Y-20.875 S0 ; travel moving
G0 X33.254 Y-21.05 S0 ; travel moving
; Ignore Command Line G1 F240 E-2.45394
G0 F240 X35.364 Y-19.843 S0 ; travel moving
G0 X34.629 Y-19.177 S0 ; travel moving
G0 X35.355 Y77.817 S0 ; travel moving
G0 X35.396 Y78.698 S0 ; travel moving
G0 X35.394 Y78.778 S0 ; travel moving
G0 X35.396 Y78.679 S0 ; travel moving
; Ignore Command Line G1 F240 E4.04606
G4 P33.0
M3 ; laser on
G1 X36.885 Y78.813 S50
G1 X37.4 Y78.852 S50
G1 X37.519 Y78.962 S50
G1 X37.681 Y79.044 S50
G1 X37.705 Y81.173 S50
G1 X37.578 Y81.208 S50
G1 X36.411 Y81.434 S50
G1 X36.255 Y81.427 S50
G1 X34.616 Y81.272 S50
G1 X33.954 Y80.784 S50
G1 X33.448 Y79.565 S50
G1 X33.455 Y79.278 S50
G1 X33.796 Y79.057 S50
G1 X34.452 Y78.724 S50
G1 X35.396 Y78.679 S50
M5 ; laser off
G0 X35.595 Y78.696 S0 ; travel moving
G0 X35.586 Y78.795 S0 ; travel moving
G0 X37.482 Y79.167 S0 ; travel moving
G0 X37.284 Y79.346 S0 ; travel moving
; Ignore Command Line G1 F240 E-2.3019
G0 F240 X33.467 Y79.562 S0 ; travel moving
G0 X32.583 Y79.54 S0 ; travel moving
G0 X-32.585 Y79.542 S0 ; travel moving
G0 X-33.468 Y79.562 S0 ; travel moving
G0 X-33.547 Y79.547 S0 ; travel moving
G0 X-33.449 Y79.565 S0 ; travel moving
; Ignore Command Line G1 F240 E4.1981
G4 P33.0
M3 ; laser on
G1 X-33.964 Y80.81 S50
G1 X-34.108 Y80.998 S50
G1 X-35.825 Y81.372 S50
G1 X-36.255 Y81.427 S50
G1 X-36.399 Y81.434 S50
G1 X-36.467 Y81.413 S50
G1 X-37.291 Y80.868 S50
G1 X-37.871 Y79.266 S50
G1 X-37.921 Y79.126 S50
G1 X-37.929 Y79.036 S50
G1 X-37.879 Y79.007 S50
G1 X-37.735 Y78.969 S50
G1 X-36.696 Y78.693 S50
G1 X-35.912 Y78.658 S50
G1 X-33.768 Y79.075 S50
G1 X-33.456 Y79.278 S50
G1 X-33.449 Y79.565 S50
M5 ; laser off
G0 X-33.525 Y79.749 S0 ; travel moving
G0 X-33.653 Y79.388 S0 ; travel moving
G0 X-33.903 Y79.464 S0 ; travel moving
; Ignore Command Line G1 F240 E-2.15354
G0 F240 X-35.913 Y78.677 S0 ; travel moving
G0 X-35.953 Y77.795 S0 ; travel moving
G0 X-33.455 Y-19.205 S0 ; travel moving
G0 X-33.783 Y-20.039 S0 ; travel moving
G0 X-32.926 Y-21.083 S0 ; travel moving
G0 X-32.159 Y-20.435 S0 ; travel moving
;TIME_ELAPSED:272.789218
;LAYER:3
G0 X-32.159 Y-20.435 Z0.8 S0 ; travel moving
;TYPE:WALL-OUTER
; Ignore Command Line G1 F240 E4.34646
G4 P33.0
M3 ; laser on
G1 X-33.697 Y-18.958 S50
G1 X-33.967 Y-18.785 S50
G1 X-34.626 Y-18.527 S50
G1 X-35.249 Y-18.311 S50
G1 X-35.417 Y-18.274 S50
G1 X-36 Y-18.296 S50
G1 X-36.645 Y-18.48 S50
G1 X-37.032 Y-18.581 S50
G1 X-37.167 Y-18.629 S50
G1 X-38.577 Y-19.624 S50
G1 X-38.717 Y-19.757 S50
G1 X-39.304 Y-20.415 S50
G1 X-39.486 Y-20.691 S50
G1 X-40.254 Y-22.18 S50
G1 X-40.298 Y-22.541 S50
G1 X-40.51 Y-24.513 S50
G1 X-40.51 Y-42.007 S50
G1 X-40.119 Y-43.668 S50
G1 X-40.028 Y-43.811 S50
G1 X-39.619 Y-43.923 S50
G1 X-38.272 Y-44.169 S50
G1 X-37.417 Y-44.193 S50
G1 X-32.88 Y-44.169 S50
G1 X-31.713 Y-43.932 S50
G1 X-31.294 Y-43.385 S50
G1 X-31.095 Y-42.723 S50
G1 X-31.021 Y-42.388 S50
G1 X-30.997 Y-42.019 S50
G1 X-30.996 Y-24.507 S50
G1 X-31.042 Y-23.094 S50
G1 X-31.091 Y-22.565 S50
G1 X-31.175 Y-22.314 S50
G1 X-32.159 Y-20.435 S50
M5 ; laser off
G0 X-32.303 Y-20.297 S0 ; travel moving
G0 X-32.321 Y-20.557 S0 ; travel moving
G0 X-32.467 Y-20.706 S0 ; travel moving
; Ignore Command Line G1 F240 E-1.34311
G0 F240 X-31.193 Y-22.321 S0 ; travel moving
G0 X-30.355 Y-22.038 S0 ; travel moving
G0 X30.135 Y-24.37 S0 ; travel moving
G0 X31 Y-24.397 S0 ; travel moving
G0 X31.142 Y-23.098 S0 ; travel moving
G0 X31.043 Y-23.092 S0 ; travel moving
; Ignore Command Line G1 F240 E5.15689
G4 P33.0
M3 ; laser on
G1 X30.996 Y-24.501 S50
G1 X30.997 Y-42.019 S50
G1 X31.052 Y-42.901 S50
G1 X31.094 Y-43.167 S50
G1 X31.26 Y-43.422 S50
G1 X31.705 Y-43.932 S50
G1 X32.016 Y-43.996 S50
G1 X32.794 Y-44.062 S50
G1 X34.701 Y-44.195 S50
G1 X35.922 Y-44.207 S50
G1 X37.188 Y-44.169 S50
G1 X39.039 Y-44.074 S50
G1 X39.869 Y-43.846 S50
G1 X40.03 Y-43.808 S50
G1 X40.119 Y-43.667 S50
G1 X40.497 Y-42.094 S50
G1 X40.51 Y-42.019 S50
G1 X40.511 Y-24.508 S50
G1 X40.499 Y-24.188 S50
G1 X40.378 Y-22.569 S50
G1 X39.912 Y-21.508 S50
G1 X39.59 Y-20.888 S50
G1 X39.563 Y-20.837 S50
G1 X39.408 Y-20.982 S50
G1 X39.105 Y-20.789 S50
G1 X36.972 Y-18.891 S50
G1 X35.747 Y-18.331 S50
G1 X35.743 Y-18.329 S50
G1 X35.591 Y-18.284 S50
G1 X35.353 Y-18.306 S50
G1 X35.352 Y-18.31 S50
G1 X35.266 Y-18.649 S50
G1 X33.146 Y-19.417 S50
G1 X33.066 Y-19.459 S50
G1 X33.002 Y-19.51 S50
G1 X32.277 Y-20.409 S50
G1 X31.281 Y-22.078 S50
G1 X31.09 Y-22.566 S50
G1 X31.043 Y-23.092 S50
M5 ; laser off
G0 X31.037 Y-23.292 S0 ; travel moving
G0 X31.137 Y-23.295 S0 ; travel moving
G0 X39.508 Y-21.163 S0 ; travel moving
G0 X39.444 Y-21.38 S0 ; travel moving
; Ignore Command Line G1 F240 E-0.53188
G0 F240 X39.093 Y-20.804 S0 ; travel moving
G0 X39.993 Y-19.888 S0 ; travel moving
G0 X35.478 Y77.359 S0 ; travel moving
G0 X35.4 Y78.238 S0 ; travel moving
G0 X35.398 Y78.318 S0 ; travel moving
G0 X35.4 Y78.219 S0 ; travel moving
; Ignore Command Line G1 F240 E5.96812
G4 P33.0
M3 ; laser on
G1 X36.528 Y78.322 S50
G1 X37.693 Y78.409 S50
G1 X37.882 Y78.431 S50
G1 X38.18 Y78.55 S50
G1 X38.436 Y78.784 S50
G1 X39.026 Y79.085 S50
G1 X39.032 Y79.549 S50
G1 X38.818 Y81.144 S50
G1 X38.448 Y81.517 S50
G1 X37.587 Y81.685 S50
G1 X36.25 Y81.621 S50
G1 X35.568 Y81.557 S50
G1 X34.101 Y81.324 S50
G1 X33.428 Y81.238 S50
G1 X32.342 Y80.437 S50
G1 X32.324 Y80.395 S50
G1 X32.358 Y78.978 S50
G1 X32.543 Y78.858 S50
G1 X33.692 Y78.333 S50
G1 X33.804 Y78.293 S50
G1 X35.4 Y78.219 S50
M5 ; laser off
G0 X35.599 Y78.237 S0 ; travel moving
G0 X35.589 Y78.336 S0 ; travel moving
G0 X32.555 Y79.089 S0 ; travel moving
G0 X32.795 Y79.182 S0 ; travel moving
; Ignore Command Line G1 F240 E-0.31245
G0 F240 X32.343 Y80.392 S0 ; travel moving
G0 X31.459 Y80.372 S0 ; travel moving
G0 X-31.461 Y80.373 S0 ; travel moving
G0 X-32.344 Y80.392 S0 ; travel moving
G0 X-32.423 Y80.377 S0 ; travel moving
G0 X-32.325 Y80.395 S0 ; travel moving
; Ignore Command Line G1 F240 E6.18755
G4 P33.0
M3 ; laser on
G1 X-32.353 Y80.464 S50
G1 X-32.815 Y81.066 S50
G1 X-32.931 Y81.203 S50
G1 X-36.248 Y81.622 S50
G1 X-37.573 Y81.683 S50
G1 X-38.516 Y81.391 S50
G1 X-38.741 Y81.242 S50
G1 X-38.932 Y80.716 S50
G1 X-39.076 Y79.073 S50
G1 X-38.679 Y78.84 S50
G1 X-37.909 Y78.44 S50
G1 X-37.847 Y78.423 S50
G1 X-36.322 Y78.135 S50
G1 X-36.219 Y78.107 S50
G1 X-33.891 Y78.287 S50
G1 X-33.764 Y78.308 S50
G1 X-33.286 Y78.472 S50
G1 X-32.537 Y78.861 S50
G1 X-32.358 Y78.976 S50
G1 X-32.325 Y80.395 S50
M5 ; laser off
G0 X-32.353 Y80.464 S0 ; travel moving
G0 X-32.429 Y80.564 S0 ; travel moving
G0 X-33.034 Y81.015 S0 ; travel moving
G0 X-33.102 Y80.784 S0 ; travel moving
; Ignore Command Line G1 F240 E-0.09118
G0 F240 X-32.375 Y78.985 S0 ; travel moving
G0 X-31.9 Y78.244 S0 ; travel moving
G0 X32.467 Y-18.831 S0 ; travel moving
G0 X33.016 Y-19.524 S0 ; travel moving
G0 X32.128 Y-20.853 S0 ; travel moving
G0 X31.382 Y-20.409 S0 ; travel moving
;TIME_ELAPSED:413.240264
;LAYER:4
G0 X31.382 Y-20.409 Z1 S0 ; travel moving
;TYPE:WALL-OUTER
; Ignore Command Line G1 F240 E6.40882
G4 P33.0
M3 ; laser on
G1 X31.334 Y-20.49 S50
G1 X30.527 Y-22.565 S50
G1 X30.352 Y-24.508 S50
G1 X30.351 Y-42.014 S50
G1 X30.53 Y-43.168 S50
G1 X30.661 Y-43.308 S50
G1 X31.114 Y-44.017 S50
G1 X31.239 Y-44.02 S50
G1 X34.078 Y-44.218 S50
G1 X36.387 Y-44.24 S50
G1 X38.768 Y-44.169 S50
G1 X39.707 Y-44.121 S50
G1 X40.123 Y-44.007 S50
G1 X40.561 Y-43.903 S50
G1 X40.825 Y-43.486 S50
G1 X41.059 Y-42.512 S50
G1 X41.148 Y-42.014 S50
G1 X41.149 Y-24.508 S50
G1 X41.092 Y-22.775 S50
G1 X41.077 Y-22.566 S50
G1 X40.221 Y-20.61 S50
G1 X40.111 Y-20.398 S50
G1 X39.461 Y-19.477 S50
G1 X39.332 Y-19.333 S50
G1 X39.138 Y-19.514 S50
G1 X38.702 Y-19.239 S50
G1 X36.956 Y-17.685 S50
G1 X35.952 Y-17.226 S50
G1 X35.704 Y-17.152 S50
G1 X35.251 Y-17.194 S50
G1 X35.18 Y-17.467 S50
G1 X33.433 Y-18.1 S50
G1 X33.22 Y-18.212 S50
G1 X33.037 Y-18.358 S50
G1 X31.382 Y-20.409 S50
M5 ; laser off
G0 X31.334 Y-20.49 S0 ; travel moving
G0 X31.296 Y-20.588 S0 ; travel moving
G0 X31.389 Y-20.623 S0 ; travel moving
G0 X33.181 Y-18.499 S0 ; travel moving
G0 X33.31 Y-18.656 S0 ; travel moving
; Ignore Command Line G1 F240 E0.76996
G0 F240 X31.398 Y-20.42 S0 ; travel moving
G0 X30.558 Y-20.103 S0 ; travel moving
G0 X-29.491 Y-24.431 S0 ; travel moving
G0 X-30.371 Y-24.508 S0 ; travel moving
G0 X-30.451 Y-24.512 S0 ; travel moving
G0 X-30.352 Y-24.508 S0 ; travel moving
; Ignore Command Line G1 F240 E7.26996
G4 P33.0
M3 ; laser on
G1 X-30.526 Y-22.564 S50
G1 X-30.892 Y-21.472 S50
G1 X-31.453 Y-20.398 S50
G1 X-32.101 Y-19.405 S50
G1 X-32.307 Y-19.153 S50
G1 X-33.612 Y-17.9 S50
G1 X-34.11 Y-17.583 S50
G1 X-34.641 Y-17.375 S50
G1 X-35.15 Y-17.199 S50
G1 X-35.421 Y-17.139 S50
G1 X-35.885 Y-17.156 S50
G1 X-36.405 Y-17.304 S50
G1 X-37.017 Y-17.462 S50
G1 X-37.255 Y-17.547 S50
G1 X-38.42 Y-18.369 S50
G1 X-38.78 Y-18.716 S50
G1 X-39.46 Y-19.476 S50
G1 X-39.526 Y-19.57 S50
G1 X-40.506 Y-21.179 S50
G1 X-40.853 Y-21.85 S50
G1 X-40.938 Y-22.541 S50
G1 X-41.148 Y-24.513 S50
G1 X-41.148 Y-42.013 S50
G1 X-41.06 Y-42.5 S50
G1 X-40.825 Y-43.487 S50
G1 X-40.559 Y-43.906 S50
G1 X-39.593 Y-44.17 S50
G1 X-37.783 Y-44.221 S50
