; G-Code generated by Simplify3D(R) Version 4.0.1
; Apr 5, 2018 at 1:30:15 PM
; Settings Summary
;   processName,Process1
;   applyToModels,JIS TYPE C
;   profileName,nikon metal (modified)
;   profileVersion,2018-04-04 13:38:52
;   baseProfile,Default
;   printMaterial,PLA
;   printQuality,Medium
;   printExtruders,
;   extruderName,Extruder 1
;   extruderToolheadNumber,0
;   extruderDiameter,1
;   extruderAutoWidth,0
;   extruderWidth,1
;   extrusionMultiplier,1
;   extruderUseRetract,0
;   extruderRetractionDistance,1
;   extruderExtraRestartDistance,0
;   extruderRetractionZLift,0
;   extruderRetractionSpeed,1800
;   extruderUseCoasting,0
;   extruderCoastingDistance,0.2
;   extruderUseWipe,0
;   extruderWipeDistance,5
;   primaryExtruder,0
;   layerHeight,0.1
;   topSolidLayers,0
;   bottomSolidLayers,0
;   perimeterOutlines,1
;   printPerimetersInsideOut,1
;   startPointOption,1
;   startPointOriginX,0
;   startPointOriginY,0
;   sequentialIslands,0
;   spiralVaseMode,0
;   firstLayerHeightPercentage,100
;   firstLayerWidthPercentage,100
;   firstLayerUnderspeed,1
;   useRaft,0
;   raftExtruder,0
;   raftTopLayers,3
;   raftBaseLayers,2
;   raftOffset,3
;   raftSeparationDistance,0.14
;   raftTopInfill,100
;   aboveRaftSpeedMultiplier,0.3
;   useSkirt,0
;   skirtExtruder,0
;   skirtLayers,1
;   skirtOutlines,2
;   skirtOffset,4
;   usePrimePillar,0
;   primePillarExtruder,999
;   primePillarWidth,12
;   primePillarLocation,7
;   primePillarSpeedMultiplier,1
;   useOozeShield,0
;   oozeShieldExtruder,999
;   oozeShieldOffset,2
;   oozeShieldOutlines,1
;   oozeShieldSidewallShape,1
;   oozeShieldSidewallAngle,30
;   oozeShieldSpeedMultiplier,1
;   infillExtruder,0
;   internalInfillPattern,Rectilinear
;   externalInfillPattern,Rectilinear
;   infillPercentage,0
;   outlineOverlapPercentage,15
;   infillExtrusionWidthPercentage,100
;   minInfillLength,5
;   infillLayerInterval,1
;   internalInfillAngles,45,-45
;   overlapInternalInfillAngles,0
;   externalInfillAngles,45,-45
;   generateSupport,0
;   supportExtruder,0
;   supportInfillPercentage,30
;   supportExtraInflation,0
;   supportBaseLayers,0
;   denseSupportExtruder,0
;   denseSupportLayers,0
;   denseSupportInfillPercentage,70
;   supportLayerInterval,1
;   supportHorizontalPartOffset,0.3
;   supportUpperSeparationLayers,1
;   supportLowerSeparationLayers,1
;   supportType,0
;   supportGridSpacing,4
;   maxOverhangAngle,45
;   supportAngles,0
;   temperatureName,Extruder 1
;   temperatureNumber,0
;   temperatureSetpointCount,1
;   temperatureSetpointLayers,1
;   temperatureSetpointTemperatures,190
;   temperatureStabilizeAtStartup,1
;   temperatureHeatedBed,0
;   temperatureRelayBetweenLayers,0
;   temperatureRelayBetweenLoops,0
;   fanLayers,1,2
;   fanSpeeds,0,100
;   blipFanToFullPower,0
;   adjustSpeedForCooling,0
;   minSpeedLayerTime,15
;   minCoolingSpeedSlowdown,20
;   increaseFanForCooling,0
;   minFanLayerTime,45
;   maxCoolingFanSpeed,100
;   increaseFanForBridging,0
;   bridgingFanSpeed,100
;   use5D,1
;   relativeEdistances,0
;   allowEaxisZeroing,1
;   independentExtruderAxes,0
;   includeM10123,0
;   stickySupport,1
;   applyToolheadOffsets,0
;   gcodeXoffset,0
;   gcodeYoffset,0
;   gcodeZoffset,0
;   overrideMachineDefinition,1
;   machineTypeOverride,0
;   strokeXoverride,150
;   strokeYoverride,150
;   strokeZoverride,150
;   originOffsetXoverride,75
;   originOffsetYoverride,75
;   originOffsetZoverride,0
;   homeXdirOverride,0
;   homeYdirOverride,0
;   homeZdirOverride,-1
;   flipXoverride,1
;   flipYoverride,-1
;   flipZoverride,1
;   toolheadOffsets,0,0|0,0|0,0|0,0|0,0|0,0
;   overrideFirmwareConfiguration,1
;   firmwareTypeOverride,RepRap (Marlin/Repetier/Sprinter)
;   GPXconfigOverride,r2
;   baudRateOverride,115200
;   overridePrinterModels,0
;   printerModelsOverride
;   startingGcode,G28 ; home all axes
;   layerChangeGcode,
;   retractionGcode,
;   toolChangeGcode,
;   endingGcode,G28 ; home all axes
;   exportFileFormat,gcode
;   celebration,0
;   celebrationSong,Random Song
;   postProcessing,
;   defaultSpeed,300
;   outlineUnderspeed,1
;   solidInfillUnderspeed,1
;   supportUnderspeed,1
;   rapidXYspeed,4800
;   rapidZspeed,600
;   minBridgingArea,50
;   bridgingExtraInflation,0
;   bridgingExtrusionMultiplier,1
;   bridgingSpeedMultiplier,1
;   useFixedBridgingAngle,0
;   fixedBridgingAngle,0
;   applyBridgingToPerimeters,0
;   filamentDiameters,1.75|1.75|1.75|1.75|1.75|1.75
;   filamentPricesPerKg,46|46|46|46|46|46
;   filamentDensities,1.25|1.25|1.25|1.25|1.25|1.25
;   useMinPrintHeight,0
;   minPrintHeight,0
;   useMaxPrintHeight,0
;   maxPrintHeight,0
;   useDiaphragm,0
;   diaphragmLayerInterval,20
;   robustSlicing,1
;   mergeAllIntoSolid,0
;   onlyRetractWhenCrossingOutline,1
;   retractBetweenLayers,1
;   useRetractionMinTravel,0
;   retractionMinTravel,3
;   retractWhileWiping,0
;   onlyWipeOutlines,1
;   avoidCrossingOutline,0
;   maxMovementDetourFactor,3
;   toolChangeRetractionDistance,12
;   toolChangeExtraRestartDistance,-0.5
;   toolChangeRetractionSpeed,600
;   externalThinWallType,0
;   internalThinWallType,0
;   thinWallAllowedOverlapPercentage,10
;   singleExtrusionMinLength,1
;   singleExtrusionMinPrintingWidthPercentage,50
;   singleExtrusionMaxPrintingWidthPercentage,200
;   singleExtrusionEndpointExtension,0.2
;   horizontalSizeCompensation,0
G90
M82
M106 S0
M104 S190 T0
M109 S190 T0
G28 ; home all axes
G1 Z0.100 F600
; process Process1
; layer 1, Z = 0.100
T0
; tool H0.100 W1.000
; outer perimeter
G1 X4.500 Y-6.760 F4800
G92 E0
G1 X4.500 Y-5.760 E0.0416 F300
G1 X-4.500 Y-5.760 E0.4158
G1 X-4.500 Y-6.760 E0.4573
G1 X4.500 Y-6.760 E0.8315
; layer 2, Z = 0.200
M106 S255
G1 X4.500 Y-5.760 F4800
G1 Z0.200 F600
G92 E0
G1 X-4.500 Y-5.760 E0.3742 F300
G1 X-4.500 Y-6.760 E0.4158
G1 X4.500 Y-6.760 E0.7899
G1 X4.500 Y-5.760 E0.8315
; layer 3, Z = 0.300
G1 Z0.300 F600
G92 E0
G1 X-4.500 Y-5.760 E0.3742 F300
G1 X-4.500 Y-6.760 E0.4158
G1 X4.500 Y-6.760 E0.7899
G1 X4.500 Y-5.760 E0.8315
; layer 4, Z = 0.400
G1 X-4.500 Y-6.760 F4800
G1 Z0.400 F600
G92 E0
G1 X4.500 Y-6.760 E0.3742 F300
G1 X4.500 Y-5.760 E0.4158
G1 X-4.500 Y-5.760 E0.7899
G1 X-4.500 Y-6.760 E0.8315
; layer 5, Z = 0.500
G1 X4.500 Y-5.760 F4800
G1 Z0.500 F600
G92 E0
G1 X-4.500 Y-5.760 E0.3742 F300
G1 X-4.500 Y-6.760 E0.4158
G1 X4.500 Y-6.760 E0.7899
G1 X4.500 Y-5.760 E0.8315
; layer 6, Z = 0.600
G1 X-4.500 Y-5.760 F4800
G1 Z0.600 F600
G92 E0
G1 X-4.500 Y-6.760 E0.0416 F300
G1 X4.500 Y-6.760 E0.4158
G1 X4.500 Y-5.760 E0.4573
G1 X-4.500 Y-5.760 E0.8315
; layer 7, Z = 0.700
G1 X4.500 Y-6.760 F4800
G1 Z0.700 F600
G92 E0
G1 X4.500 Y-5.760 E0.0416 F300
G1 X-4.500 Y-5.760 E0.4158
G1 X-4.500 Y-6.760 E0.4573
G1 X4.500 Y-6.760 E0.8315
; layer 8, Z = 0.800
G1 Z0.800 F600
G92 E0
G1 X4.500 Y-5.760 E0.0416 F300
G1 X-4.500 Y-5.760 E0.4158
G1 X-4.500 Y-6.760 E0.4573
G1 X4.500 Y-6.760 E0.8315
; layer 9, Z = 0.900
G1 X-4.500 Y-6.760 F4800
G1 Z0.900 F600
G92 E0
G1 X4.500 Y-6.760 E0.3742 F300
G1 X4.500 Y-5.760 E0.4158
G1 X-4.500 Y-5.760 E0.7899
G1 X-4.500 Y-6.760 E0.8315
; layer 10, Z = 1.000
G1 X4.500 Y-5.760 F4800
G1 Z1.000 F600
G92 E0
G1 X-4.500 Y-5.760 E0.3742 F300
G1 X-4.500 Y-6.760 E0.4158
G1 X4.500 Y-6.760 E0.7899
G1 X4.500 Y-5.760 E0.8315
; layer 11, Z = 1.100
G1 Z1.100 F600
G92 E0
G1 X-4.500 Y-5.760 E0.3742 F300
G1 X-4.500 Y-6.760 E0.4158
G1 X4.500 Y-6.760 E0.7899
G1 X4.500 Y-5.760 E0.8315
; layer 12, Z = 1.200
G1 X-4.500 Y-5.760 F4800
G1 Z1.200 F600
G92 E0
G1 X-4.500 Y-6.760 E0.0416 F300
G1 X4.500 Y-6.760 E0.4158
G1 X4.500 Y-5.760 E0.4573
G1 X-4.500 Y-5.760 E0.8315
; layer 13, Z = 1.300
G1 X-4.500 Y-6.760 F4800
G1 Z1.300 F600
G92 E0
G1 X4.500 Y-6.760 E0.3742 F300
G1 X4.500 Y-5.760 E0.4158
G1 X-4.500 Y-5.760 E0.7899
G1 X-4.500 Y-6.760 E0.8315
; layer 14, Z = 1.400
G1 X4.500 Y-5.760 F4800
G1 Z1.400 F600
G92 E0
G1 X-4.500 Y-5.760 E0.3742 F300
G1 X-4.500 Y-6.760 E0.4158
G1 X4.500 Y-6.760 E0.7899
G1 X4.500 Y-5.760 E0.8315
; layer 15, Z = 1.500
G1 X4.500 Y-6.760 F4800
G1 Z1.500 F600
G92 E0
G1 X4.500 Y-5.760 E0.0416 F300
G1 X-4.500 Y-5.760 E0.4158
G1 X-4.500 Y-6.760 E0.4573
G1 X4.500 Y-6.760 E0.8315
; layer 16, Z = 1.600
G1 X-4.500 Y-6.760 F4800
G1 Z1.600 F600
G92 E0
G1 X4.500 Y-6.760 E0.3742 F300
G1 X4.500 Y-5.760 E0.4158
G1 X-4.500 Y-5.760 E0.7899
G1 X-4.500 Y-6.760 E0.8315
; layer 17, Z = 1.700
G1 Z1.700 F600
G92 E0
G1 X4.500 Y-6.760 E0.3742 F300
G1 X4.500 Y-5.760 E0.4158
G1 X-4.500 Y-5.760 E0.7899
G1 X-4.500 Y-6.760 E0.8315
; layer 18, Z = 1.800
G1 X4.500 Y-5.760 F4800
G1 Z1.800 F600
G92 E0
G1 X-4.500 Y-5.760 E0.3742 F300
G1 X-4.500 Y-6.760 E0.4158
G1 X4.500 Y-6.760 E0.7899
G1 X4.500 Y-5.760 E0.8315
; layer 19, Z = 1.900
G1 X4.500 Y-6.760 F4800
G1 Z1.900 F600
G92 E0
G1 X4.500 Y-5.760 E0.0416 F300
G1 X-4.500 Y-5.760 E0.4158
G1 X-4.500 Y-6.760 E0.4573
G1 X4.500 Y-6.760 E0.8315
; layer 20, Z = 2.000
G1 X-4.500 Y-6.760 F4800
G1 Z2.000 F600
G92 E0
G1 X4.500 Y-6.760 E0.3742 F300
G1 X4.500 Y-5.760 E0.4158
G1 X-4.500 Y-5.760 E0.7899
G1 X-4.500 Y-6.760 E0.8315
; layer 21, Z = 2.100
G1 X4.500 Y-6.760 F4800
G1 Z2.100 F600
G92 E0
G1 X4.500 Y-5.760 E0.0416 F300
G1 X-4.500 Y-5.760 E0.4158
G1 X-4.500 Y-6.760 E0.4573
G1 X4.500 Y-6.760 E0.8315
; layer 22, Z = 2.200
G1 X-4.500 Y-5.760 F4800
G1 Z2.200 F600
G92 E0
G1 X-4.500 Y-6.760 E0.0416 F300
G1 X4.500 Y-6.760 E0.4158
G1 X4.500 Y-5.760 E0.4573
G1 X-4.500 Y-5.760 E0.8315
; layer 23, Z = 2.300
G1 X4.500 Y-5.760 F4800
G1 Z2.300 F600
G92 E0
G1 X-4.500 Y-5.760 E0.3742 F300
G1 X-4.500 Y-6.760 E0.4158
G1 X4.500 Y-6.760 E0.7899
G1 X4.500 Y-5.760 E0.8315
; layer 24, Z = 2.400
G1 X4.500 Y-6.760 F4800
G1 Z2.400 F600
G92 E0
G1 X4.500 Y-5.760 E0.0416 F300
G1 X-4.500 Y-5.760 E0.4158
G1 X-4.500 Y-6.760 E0.4573
G1 X4.500 Y-6.760 E0.8315
; layer 25, Z = 2.500
G1 X4.500 Y-5.760 F4800
G1 Z2.500 F600
G92 E0
G1 X-4.500 Y-5.760 E0.3742 F300
G1 X-4.500 Y-6.760 E0.4158
G1 X4.500 Y-6.760 E0.7899
G1 X4.500 Y-5.760 E0.8315
; layer 26, Z = 2.600
G1 Z2.600 F600
G92 E0
G1 X-4.500 Y-5.760 E0.3742 F300
G1 X-4.500 Y-6.760 E0.4158
G1 X4.500 Y-6.760 E0.7899
G1 X4.500 Y-5.760 E0.8315
; layer 27, Z = 2.700
G1 X-4.500 Y-5.760 F4800
G1 Z2.700 F600
G92 E0
G1 X-4.500 Y-6.760 E0.0416 F300
G1 X4.500 Y-6.760 E0.4158
G1 X4.500 Y-5.760 E0.4573
G1 X-4.500 Y-5.760 E0.8315
; layer 28, Z = 2.800
G1 X4.500 Y-6.760 F4800
G1 Z2.800 F600
G92 E0
G1 X4.500 Y-5.760 E0.0416 F300
G1 X-4.500 Y-5.760 E0.4158
G1 X-4.500 Y-6.760 E0.4573
G1 X4.500 Y-6.760 E0.8315
; layer 29, Z = 2.900
G1 X-4.500 Y-5.760 F4800
G1 Z2.900 F600
G92 E0
G1 X-4.500 Y-6.760 E0.0416 F300
G1 X4.500 Y-6.760 E0.4158
G1 X4.500 Y-5.760 E0.4573
G1 X-4.500 Y-5.760 E0.8315
; layer 30, Z = 3.000
G1 X-4.500 Y-6.760 F4800
G1 Z3.000 F600
G92 E0
G1 X4.500 Y-6.760 E0.3742 F300
G1 X4.500 Y-5.760 E0.4158
G1 X-4.500 Y-5.760 E0.7899
G1 X-4.500 Y-6.760 E0.8315
; layer 31, Z = 3.100
G1 X4.500 Y-6.760 F4800
G1 Z3.100 F600
G92 E0
G1 X4.500 Y-5.760 E0.0416 F300
G1 X-4.500 Y-5.760 E0.4158
G1 X-4.500 Y-6.760 E0.4573
G1 X4.500 Y-6.760 E0.8315
; layer 32, Z = 3.200
G1 X-4.500 Y-6.760 F4800
G1 Z3.200 F600
G92 E0
G1 X4.500 Y-6.760 E0.3742 F300
G1 X4.500 Y-5.760 E0.4158
G1 X-4.500 Y-5.760 E0.7899
G1 X-4.500 Y-6.760 E0.8315
; layer 33, Z = 3.300
G1 Z3.300 F600
G92 E0
G1 X4.500 Y-6.760 E0.3742 F300
G1 X4.500 Y-5.760 E0.4158
G1 X-4.500 Y-5.760 E0.7899
G1 X-4.500 Y-6.760 E0.8315
; layer 34, Z = 3.400
G1 Z3.400 F600
G92 E0
G1 X4.500 Y-6.760 E0.3742 F300
G1 X4.500 Y-5.760 E0.4158
G1 X-4.500 Y-5.760 E0.7899
G1 X-4.500 Y-6.760 E0.8315
; layer 35, Z = 3.500
G1 X4.500 Y-5.760 F4800
G1 Z3.500 F600
G92 E0
G1 X-4.500 Y-5.760 E0.3742 F300
G1 X-4.500 Y-6.760 E0.4158
G1 X4.500 Y-6.760 E0.7899
G1 X4.500 Y-5.760 E0.8315
; layer 36, Z = 3.600
G1 X-4.500 Y-5.760 F4800
G1 Z3.600 F600
G92 E0
G1 X-4.500 Y-6.760 E0.0416 F300
G1 X4.500 Y-6.760 E0.4158
G1 X4.500 Y-5.760 E0.4573
G1 X-4.500 Y-5.760 E0.8315
; layer 37, Z = 3.700
G1 Z3.700 F600
G92 E0
G1 X-4.500 Y-6.760 E0.0416 F300
G1 X4.500 Y-6.760 E0.4158
G1 X4.500 Y-5.760 E0.4573
G1 X-4.500 Y-5.760 E0.8315
; layer 38, Z = 3.800
G1 X-4.500 Y-6.760 F4800
G1 Z3.800 F600
G92 E0
G1 X4.500 Y-6.760 E0.3742 F300
G1 X4.500 Y-5.760 E0.4158
G1 X-4.500 Y-5.760 E0.7899
G1 X-4.500 Y-6.760 E0.8315
; layer 39, Z = 3.900
G1 X-4.500 Y-5.760 F4800
G1 Z3.900 F600
G92 E0
G1 X-4.500 Y-6.760 E0.0416 F300
G1 X4.500 Y-6.760 E0.4158
G1 X4.500 Y-5.760 E0.4573
G1 X-4.500 Y-5.760 E0.8315
; layer 40, Z = 4.000
G1 X4.500 Y-5.760 F4800
G1 Z4.000 F600
G92 E0
G1 X-4.500 Y-5.760 E0.3742 F300
G1 X-4.500 Y-6.760 E0.4158
G1 X4.500 Y-6.760 E0.7899
G1 X4.500 Y-5.760 E0.8315
; layer 41, Z = 4.100
G1 X4.500 Y-6.760 F4800
G1 Z4.100 F600
G92 E0
G1 X4.500 Y-5.760 E0.0416 F300
G1 X-4.500 Y-5.760 E0.4158
G1 X-4.500 Y-6.760 E0.4573
G1 X4.500 Y-6.760 E0.8315
; layer 42, Z = 4.200
G1 X-4.500 Y-6.760 F4800
G1 Z4.200 F600
G92 E0
G1 X4.500 Y-6.760 E0.3742 F300
G1 X4.500 Y-5.760 E0.4158
G1 X-4.500 Y-5.760 E0.7899
G1 X-4.500 Y-6.760 E0.8315
; layer 43, Z = 4.300
G1 X4.500 Y-5.760 F4800
G1 Z4.300 F600
G92 E0
G1 X-4.500 Y-5.760 E0.3742 F300
G1 X-4.500 Y-6.760 E0.4158
G1 X4.500 Y-6.760 E0.7899
G1 X4.500 Y-5.760 E0.8315
; layer 44, Z = 4.400
G1 Z4.400 F600
G92 E0
G1 X-4.500 Y-5.760 E0.3742 F300
G1 X-4.500 Y-6.760 E0.4158
G1 X4.500 Y-6.760 E0.7899
G1 X4.500 Y-5.760 E0.8315
; layer 45, Z = 4.500
G1 Z4.500 F600
G92 E0
G1 X-4.500 Y-5.760 E0.3742 F300
G1 X-4.500 Y-6.760 E0.4158
G1 X4.500 Y-6.760 E0.7899
G1 X4.500 Y-5.760 E0.8315
; layer 46, Z = 4.600
G1 X4.500 Y-6.760 F4800
G1 Z4.600 F600
G92 E0
G1 X4.500 Y-5.760 E0.0416 F300
G1 X-4.500 Y-5.760 E0.4158
G1 X-4.500 Y-6.760 E0.4573
G1 X4.500 Y-6.760 E0.8315
; layer 47, Z = 4.700
G1 Z4.700 F600
G92 E0
G1 X4.500 Y-5.760 E0.0416 F300
G1 X-4.500 Y-5.760 E0.4158
G1 X-4.500 Y-6.760 E0.4573
G1 X4.500 Y-6.760 E0.8315
; layer 48, Z = 4.800
G1 X-4.500 Y-6.760 F4800
G1 Z4.800 F600
G92 E0
G1 X4.500 Y-6.760 E0.3742 F300
G1 X4.500 Y-5.760 E0.4158
G1 X-4.500 Y-5.760 E0.7899
G1 X-4.500 Y-6.760 E0.8315
; layer 49, Z = 4.900
G1 Z4.900 F600
G92 E0
G1 X4.500 Y-6.760 E0.3742 F300
G1 X4.500 Y-5.760 E0.4158
G1 X-4.500 Y-5.760 E0.7899
G1 X-4.500 Y-6.760 E0.8315
; layer 50, Z = 5.000
G1 X-4.500 Y-5.760 F4800
G1 Z5.000 F600
G92 E0
G1 X-4.500 Y-6.760 E0.0416 F300
G1 X4.500 Y-6.760 E0.4158
G1 X4.500 Y-5.760 E0.4573
G1 X-4.500 Y-5.760 E0.8315
; layer 51, Z = 5.100
G1 X4.500 Y-6.760 F4800
G1 Z5.100 F600
G92 E0
G1 X4.500 Y-5.760 E0.0416 F300
G1 X-4.500 Y-5.760 E0.4158
G1 X-4.500 Y-6.760 E0.4573
G1 X4.500 Y-6.760 E0.8315
; layer 52, Z = 5.200
G1 X-4.500 Y-6.760 F4800
G1 Z5.200 F600
G92 E0
G1 X4.500 Y-6.760 E0.3742 F300
G1 X4.500 Y-5.760 E0.4158
G1 X-4.500 Y-5.760 E0.7899
G1 X-4.500 Y-6.760 E0.8315
; layer 53, Z = 5.300
G1 Z5.300 F600
G92 E0
G1 X4.500 Y-6.760 E0.3742 F300
G1 X4.500 Y-5.760 E0.4158
G1 X-4.500 Y-5.760 E0.7899
G1 X-4.500 Y-6.760 E0.8315
; layer 54, Z = 5.400
G1 Z5.400 F600
G92 E0
G1 X4.500 Y-6.760 E0.3742 F300
G1 X4.500 Y-5.760 E0.4158
G1 X-4.500 Y-5.760 E0.7899
G1 X-4.500 Y-6.760 E0.8315
; layer 55, Z = 5.500
G1 Z5.500 F600
G92 E0
G1 X4.500 Y-6.760 E0.3742 F300
G1 X4.500 Y-5.760 E0.4158
G1 X-4.500 Y-5.760 E0.7899
G1 X-4.500 Y-6.760 E0.8315
; layer 56, Z = 5.600
G1 X-4.500 Y-5.760 F4800
G1 Z5.600 F600
G92 E0
G1 X-4.500 Y-6.760 E0.0416 F300
G1 X4.500 Y-6.760 E0.4158
G1 X4.500 Y-5.760 E0.4573
G1 X-4.500 Y-5.760 E0.8315
; layer 57, Z = 5.700
G1 X4.500 Y-5.760 F4800
G1 Z5.700 F600
G92 E0
G1 X-4.500 Y-5.760 E0.3742 F300
G1 X-4.500 Y-6.760 E0.4158
G1 X4.500 Y-6.760 E0.7899
G1 X4.500 Y-5.760 E0.8315
